X: 57
T: No_152_Around_the_Sky.krn
%%abc-version 2.0
%%abcx-abcm2ps-target-version 5.9.1 (29 Sep 2008)
%%abc-creator hum2abc beta
%%abcx-conversion-date 2020/08/10 18:54:56
%%gracespace 0 6 6
%%humdrum-veritas 3103086470
%%humdrum-veritas-data 3583848084
%%linebreak <none>
%%barnumbers 0
L: 1/8
M: 2/4
%%staves {1 2}
V: 1 clef=treble
V: 2 clef=bass
K: A
[V:1] [K:clef=treble][M:2/4]F2F3/E/ | 
[V:2] [K:clef=bass][M:2/4](3!accent!G,, z G,, (3!accent!G,, z G,, | 
[V:1] C>C C3/E/ | 
[V:2] z4 | 
[V:1] EE/C/ CC | 
[V:2] z4 | 
[V:1] C4 | 
[V:2] z4 | 
[V:1] CE E3/C/[K:clef=bass] | 
[V:2] z4 | 
[V:1] A,2F,2 ||  
[V:2] z4 ||  
[V:1] [M:3/4]C/CC/A,2F,3/A,/ ||  
[V:2] [M:3/4]z6 ||  
[V:1] [M:2/4]E,>E, E,E, | 
[V:2] [M:2/4]z4 | 
[V:1] E,4 | 
[V:2] z4 | 
[V:1] F,<F, F,3/E,/ | 
[V:2] z4 | 
[V:1] C,2C,3/E,/ | 
[V:2] z4 | 
[V:1] E,>E, C,3/C,/ | 
[V:2] z4 | 
[V:1] C,3C, | 
[V:2] z4 | 
[V:1] C,4 | 
[V:2] z4 | 
[V:1] (3CCE E3/C/ | 
[V:2] z4 | 
[V:1] A,2(3F,F,C ||  
[V:2] z4 ||  
[V:1] [M:3/4]C2(3CA,-A, F,3/A,/ ||  
[V:2] [M:3/4]z6 ||  
[V:1] [M:2/4]E,>E, E,3/E,/ | 
[V:2] [M:2/4]z4 | 
[V:1] E,4 | 
[V:2] z4 | 
[V:1] F,<F, F,3/E,/ | 
[V:2] z4 | 
[V:1] C,C, C,3/E,/ | 
[V:2] z4 | 
[V:1] E,>E, C,3/C,/ | 
[V:2] z4 | 
[V:1] C,4 |]  
[V:2] z4 |]  


